!!!!SEGMENT: pl-sa--78-a-ii-18--005_kraus-lambert--requiem-ex-dis-sanctus.krn
!!!cenid: 17xx:1686
!!!COM: Kraus, Lambert
!!!COM-rismID: pe30001779
!!!CDT: 1728-1790
!!!CNT:
!!!OPR: Requiem ex Dis
!!!OTL: Sanctus
!!!OMV: 006
!!!PDT:
!!!AGN: Sacred; Requiem
!!!SMS-siglum: PL-SA
!!!SMS-shelfmark: 78/A II 18
!!!SMS-shelfwork: 001-006 M
!!!SMS-variant:
!!!SMS-altvar:
!!!NIFC-rismSourceID: 1001070176
!!!NIFC-islandoraID:
!!!URL-pdf-islandora:
!!!URL-scan: https://bc.bdsandomierz.pl/dlibra/publication/1355/edition/1323/content @EN{Scan on Cyfrowa Biblioteka Diecezjalna w Sandomierzu} @PL{Skany w portalu Cyfrowa Biblioteka Diecezjalna w Sandomierzu}
!!!ONB-nifc: UWAGA: części Requiem: 1. Requiem, 2. Kyrie, 3. Dies irae, 4. Responde mihi, 5. Sanctus, 6. Benedictus, 7. Agnus Dei, 8. Lux aeterna
!!!AIN: 1 alto 1 bass 2 cor 1 organ 1 soprn 1 tenor 2 violn
!!!key:
**kern	**kern	**kern	**kern	**text	**dynam	**kern	**text	**kern	**text	**kern	**text	**kern	**kern
*part9	*part8	*part7	*part6	*part6	*part6	*part5	*part5	*part4	*part4	*part3	*part3	*part2	*part1
*staff9	*staff8	*staff7	*staff6	*staff6	*	*staff5	*staff5	*staff4	*staff4	*staff3	*staff3	*staff2	*staff1
*IGcont	*IGacmp	*IGacmp	*IGcoro	*	*	*IGcoro	*	*IGcoro	*	*IGcoro	*	*IGacmp	*IGacmp
*ICklav	*ICstr	*ICstr	*ICvox	*	*	*ICvox	*	*ICvox	*	*ICvox	*	*ICbras	*ICbras
*Iorgan	*Ivioln	*Ivioln	*Ibass	*	*	*Itenor	*	*Ialto	*	*Isoprn	*	*Icor	*Icor
*I"Organo	*I"Violino 2do	*I"Violino 1mo	*I"Baſso	*	*	*I"Tenore	*	*I"Alto	*	*I"Canto	*	*I"Cornu 2do ex Dis	*I"Cornu 1mo ex Dis
*I'org	*I'vl 2	*I'vl 1	*I'B	*	*	*I'T	*	*I'A	*	*I'S	*	*I'cor 2 in E|b	*I'cor 1 in E|b
*clefF4	*clefG2	*clefG2	*clefF4	*	*	*clefC4	*	*clefC3	*	*clefC1	*	*clefG2	*clefG2
*	*	*	*	*	*	*	*	*	*	*	*	*ITrd5c9	*ITrd5c9
*k[a-e-b-]	*k[e-b-a-]	*k[e-b-a-]	*k[b-e-a-]	*	*	*k[a-b-e-]	*	*k[a-b-e-]	*	*k[a-b-e-]	*	*k[b-e-a-]	*k[b-e-a-]
*E-:	*E-:	*E-:	*E-:	*	*	*E-:	*	*E-:	*	*E-:	*	*E-:	*E-:
*M3/4	*M3/4	*M3/4	*M3/4	*	*	*M3/4	*	*M3/4	*	*M3/4	*	*M3/4	*M3/4
*2\right	*2\right	*2\right	*2\right	*	*	*2\right	*	*2\right	*	*2\right	*	*2\right	*2\right
=1	=1	=1	=1	=1	=1	=1	=1	=1	=1	=1	=1	=1	=1
!	!	!	!	!	!	!	!	!	!	!LO:TX:b:t=adagio	!	!	!
!	!LO:TX:a:t=adagio	!LO:TX:a:t=adagio	!	!	!	!	!	!	!	!	!	!LO:TX:t=P:problem=skreślony takt	!
4E-\	8r	8r	8r	.	.	8r	.	8r	.	2.ee-\	San-	4e-\	4g\
.	8e-/L	8g/L	8E-\	San-	.	8G/	Sa-	8e-\	San-	.	.	.	.
!	!	!	!LO:TX:t=P:p=pi:problem	!	!LO:DY:a:Bi:t=pi	!	!	!	!	!	!	!	!
4r	8f/	8a-/	8F\L	.	p	8A-/L	.	8f\L	.	.	.	4r	4r
.	8e-/	8g/	8E-\	.	.	8G/	.	8e-\	.	.	.	.	.
4r	8f/	8a-/	8F\	.	.	8A-/	.	8f\	.	.	.	4r	4r
.	8g/J	8b-/J	8G\J	.	.	8B-/J	.	8g\J	.	.	.	.	.
=2	=2	=2	=2	=2	=2	=2	=2	=2	=2	=2	=2	=2	=2
!	!	!	!LO:TX:t=P:ff=ffor:problem	!	!LO:DY:a:Bi:t=ffor	!	!	!	!	!	!	!	!
4A-\	4a-/	4cc\	4A-\	.	ff	4c\	.	4a-\	.	4ee-\	-ctus	4a-\	4cc\
4E-\	4g/	4b-\	4E-\	-ctus	.	4B-\	-nctus	4g\	-ctus	4ee-\	.	4g\	4b-\
4r	4r	4r	4r	.	.	4r	.	4r	.	4r	.	4r	4r
=3	=3	=3	=3	=3	=3	=3	=3	=3	=3	=3	=3	=3	=3
8r	8r	2ff\	8r	.	.	(2B-\	Sa-	8r	.	2ff\	Sa-	4f\	4a-\
8BB-/L	8d/L	.	8BB-/	Do-	.	.	.	8d\	Sa-	.	.	.	.
8C/	8e-/	.	8C/L	.	.	.	.	8e-\L	.	.	.	4r	4r
8BB-/	8d/	.	8BB-/	.	.	.	.	8d\	.	.	.	.	.
8C/	8e-/	4a-/	8C/	.	.	4A-\)	.	8e-\	.	[4a-\	.	4r	4r
8D/J	8f/J	.	8D/J	.	.	.	.	8f\J	.	.	.	.	.
=4	=4	=4	=4	=4	=4	=4	=4	=4	=4	=4	=4	=4	=4
!	!LO:SIC:v:s=4f/:t=?	!	!	!	!	!	!	!LO:LB:g=original	!	!	!	!	!
4E-\	4g/	4a-/	4E-\	-mi-	.	4G/	.	4g\	.	4a-\]	.	4e-\	4g\
!	!LO:SIC:v:s=4e-/	!	!	!	!	!	!	!	!	!	!	!	!
4EE-/	4f/	4g/	4E-\	-nus	.	4B-/	-nctus	4g\	-nctus	4g\	-nctus	4e-\	4g\
4r	4r	4r	4r	.	.	4r	.	4r	.	4r	.	4r	4r
!LO:CL:ed	!	!	!	!	!	!	!	!	!	!	!	!	!
*clefC4	*	*	*	*	*	*	*	*	*	*	*	*	*
=5	=5	=5	=5	=5	=5	=5	=5	=5	=5	=5	=5	=5	=5
*clefC4	*	*	*	*	*	*	*	*	*	*	*	*	*
*k[a-b-e-]	*	*	*	*	*	*	*	*	*	*	*	*	*
!	!	!LO:LB:g=original	!LO:LB:g=original	!	!	!LO:LB:g=original	!	!	!	!	!	!LO:TX:a:t=3	!
8r	8r	2ff\	8r	.	.	8r	.	8r	.	2ff\	Sa-	1.r	1.r
8B-\L	8d/L	.	8D\	Sa-	.	8B-\	Sa-	8d\	Sa-	.	.	.	.
8c\	8e-/	.	8E-\L	.	.	8c\L	.	8e-\L	.	.	.	.	.
8B-\	8d/	.	8D\	.	.	8B-\	.	8d\	.	.	.	.	.
8c\	8e-/	4a-/	8E-\	.	.	8c\	.	8e-\	.	[4a-\	.	.	.
8d\J	8f/J	.	8F\J	.	.	8d\J	.	8f\J	.	.	.	.	.
=6	=6	=6	=6	=6	=6	=6	=6	=6	=6	=6	=6	=6	=6
!	!LO:LB:g=original	!	!	!	!	!	!	!	!	!	!	!	!
!	!LO:SIC:v:s=4f/	!	!	!	!	!	!	!	!	!	!	!	!
4e-\	4g/	4g/	4G\	.	.	4e-\	.	4g\	.	4a-\]	.	.	.
!	!LO:SIC:v:s=4e-/	!	!	!	!	!	!	!	!	!	!	!	!
4E-/	4f/	4g/	4G\	-[n]ctus	.	4E-/	-nctus	4g\	-nctus	4g\	-nctus	.	.
4r	4r	4r	4r	.	.	4r	.	4r	.	4r	.	.	.
!LO:CL:ed	!	!	!	!	!	!	!	!	!	!	!	!	!
*clefF4	*	*	*	*	*	*	*	*	*	*	*	*	*
=7	=7	=7	=7	=7	=7	=7	=7	=7	=7	=7	=7	=7	=7
*clefF4	*	*	*	*	*	*	*	*	*	*	*	*	*
*k[a-e-b-]	*	*	*	*	*	*	*	*	*	*	*	*	*
!	!	!	!	!	!	!	!	!	!	!LO:LB:g=original	!	!	!
8r	2an/	2ee-\	8r	.	.	4.c\	Do-	4.an\	Do-	4.ee-\	Do-	2.r	2.r
8c\L	.	.	8C/	Do-	.	.	.	.	.	.	.	.	.
8c\	.	.	8c\L	-mi-	.	.	.	.	.	.	.	.	.
8B-\	.	.	8B-\J	.	.	8c\	-mi-	8a\	-mi-	8ee-\	-mi-	.	.
8An\	4a/	4ee-\	8An\	-nus	.	4c\	-nus	4a\	-nus	4ee-\	-nus	.	.
8G\J	.	.	16G\	De-	.	.	.	.	.	.	.	.	.
.	.	.	16G\	-us	.	.	.	.	.	.	.	.	.
=8	=8	=8	=8	=8	=8	=8	=8	=8	=8	=8	=8	=8	=8
!	!	!	!	!	!	!	!	!LO:SIC:v:s=4an\	!	!	!	!	!LO:LB:g=original
4F\	2dd\	2ff\	4F\	Sa-	.	2d\	De-	4a-\	De-	2ee-\	De-	8r	8r
.	.	.	.	.	.	.	.	.	.	.	.	8e-\	8b-\
4An\	.	.	4An\	-ba-	.	.	.	[4f\	.	.	.	4f\	4b-\
4B-\	4b-\	4dd\	4B-\	-oth	.	4B-\	-us	4f\]	-us	4dd\	-us	4f\	4aX\
=9	=9	=9	=9	=9	=9	=9	=9	=9	=9	=9	=9	=9	=9
!	!	!	!LO:TX:t=1	!	!	!	!	!LO:TX:t=1:a	!	!	!	!	!
2.r	8r	8r	2.r	.	.	2.r	.	2.r	.	2.r	.	4B-/	4b-\
.	8b-\L	8dd\L	.	.	.	.	.	.	.	.	.	.	.
.	8cc\	8ee-\	.	.	.	.	.	.	.	.	.	4r	4r
.	8dd\	8ff\	.	.	.	.	.	.	.	.	.	.	.
.	8ee-\	8gg\	.	.	.	.	.	.	.	.	.	4r	4r
.	8cc\J	8aan\J	.	.	.	.	.	.	.	.	.	.	.
=10	=10	=10	=10	=10	=10	=10	=10	=10	=10	=10	=10	=10	=10
!	!	!	!	!	!	!	!	!LO:LB:g=original	!	!	!	!	!
8r	8dd\L	8bb-\L	8r	.	.	8r	.	8r	.	8r	.	8r	8r
8E-\	8cc\J	8ee-\J	8F\	San-	.	8c\	Sa-	8g\	Sa-	8ee-\	Sa-	8e-\	8b-\
4F\	4b-\	4dd\	4F\	.	.	4B-\	.	4f\	.	4dd\	.	4f\	4b-\
!	!	!	!LO:SIC:l:v:s=.	!	!	!	!	!	!	!	!	!	!
4FF/	4an\	4cc\	4FF/	-ctus-	.	4An\	-ba-	4f\	-ba-	4cc\	-ba-	4f\	4aX\
=11	=11	=11	=11	=11	=11	=11	=11	=11	=11	=11	=11	=11	=11
!LO:LB:g=original	!	!LO:LB:g=original	!LO:LB:g=original	!	!	!LO:LB:g=original	!	!	!	!	!	!	!
4BB-/	8b-\L	8b-\L	4BB-/	-tus	.	4B-\	-oth	4f\	-oth	4b-\	-oth	4B-/	2b-\
.	8b-\	8dd\	.	.	.	.	.	.	.	.	.	.	.
4r	8cc\	8ee-\	4r	.	.	4r	.	4r	.	4r	.	4r	.
.	8dd\	8ff\	.	.	.	.	.	.	.	.	.	.	.
4r	8ee-\	8gg\	4r	.	.	4r	.	4r	.	4r	.	4r	4r
.	8cc\J	8aan\J	.	.	.	.	.	.	.	.	.	.	.
=12	=12	=12	=12	=12	=12	=12	=12	=12	=12	=12	=12	=12	=12
8r	8dd\L	8bb-\L	8r	.	.	8r	.	8r	.	8r	.	8r	8r
8E-\	8cc\J	8ee-\J	8E-\	San-	.	8c\	Sa-	8g\	Sa-	8ee-\	Sa-	8e-\	8b-\
4F\	4b-\	4dd\	4F\	.	.	4B-\	.	4f\	.	4dd\	.	4f\	4b-\
4FF/	4an\	4cc\	4FF/	.	.	4An\	-ba-	4f\	-ba-	4cc\	-ba-	4f\	4aX\
=13	=13	=13	=13	=13	=13	=13	=13	=13	=13	=13	=13	=13	=13
!	!LO:LB:g=original	!	!	!	!	!	!	!	!	!	!	!	!
.	.	8qqcc/	.	.	.	.	.	.	.	.	.	.	.
2BB-/	2b-\	2b-\	2BB-/	-ctus	.	4B-\	-oth	2f\	-oth	2dd\	-oth	4B-/	2b-\
.	.	.	.	.	.	4r	.	.	.	.	.	4r	.
4r	4r	4r	4r	.	.	4r	.	4r	.	4r	.	4r	4r
=14	=14	=14	=14	=14	=14	=14	=14	=14	=14	=14	=14	=14	=14
4B-\	8r	8r	4B-\	Do-	.	4B-\	Ple-	8r	.	8r	.	2.B-/	4B-/
.	8b-\L	8dd\L	.	.	.	.	.	8b-\	Ple-	8dd\	Ple-	.	.
4B-\	8cc\	8ee-\	4B-\	-mi-	.	4B-\	-ni	8cc\L	-ni	8ee-\L	-ni	.	4B-/
.	8b-\	8dd\	.	.	.	.	.	8b-\J	.	8dd\J	.	.	.
4B-\	8cc\	8ee-\	4B-\	-nus	.	4c\	Sunt	8cc\L	Sunt	8ee-\L	Sunt	.	4B-/
.	8dd\J	8ff\J	.	.	.	.	.	8dd\J	.	8ff\J	.	.	.
=15	=15	=15	=15	=15	=15	=15	=15	=15	=15	=15	=15	=15	=15
!	!	!	!	!	!	!	!	!	!	!LO:LB:g=original	!	!LO:LB:g=original	!
4B-\	4ee-\	4gg\	4B-\	De-	.	4B-\	ce-	4ee-\	ce-	4gg\	Cae-	4B-/	4B-/
4BB-/	4dd\	4ff\	4BB-/	-us	.	4B-\	-li	4dd\	-li	4ff\	-li	4B-/	4B-/
4r	4r	4r	4r	.	.	4r	.	4r	.	4r	.	4r	4r
=16	=16	=16	=16	=16	=16	=16	=16	=16	=16	=16	=16	=16	=16
!	!	!LO:LB:g=original	!	!	!	!	!	!LO:LB:g=original	!	!	!	!	!
8r	4cc\	4ee-\	8r	.	.	4An\	ce-	4cc\	Ce-	4ee-\	Ce-	0.r	0.r
8F\L	.	.	8F\	D[o]-	.	.	.	.	.	.	.	.	.
8G\	4cc\	4ee-\	8G\L	-mi-	.	4c\	-li	4cc\	-li	4ee-\	-li	.	.
8F\	.	.	8F\J	.	.	.	.	.	.	.	.	.	.
8G\	4cc\	4ee-\	8G\L	-nus	.	4A\	et	4cc\	et	4ee-\	et	.	.
8An\J	.	.	8An\J	.	.	.	.	.	.	.	.	.	.
=17	=17	=17	=17	=17	=17	=17	=17	=17	=17	=17	=17	=17	=17
!	!	!	!	!	!	!LO:LB:g=original	!	!	!	!	!	!	!
4B-\	4cc\	4ee-\	4B-\	De-	.	4F/	ter-	4cc\	te[r]-	4ee-\	ter-	.	.
4BB-/	4b-\	4dd\	4BB-/	-us	.	4F/	-re	4b-\	-ra	4dd\	-ra	.	.
4r	4r	4r	4r	.	.	4r	.	4r	.	4r	.	.	.
!LO:CL:ed	!	!	!	!	!	!	!	!	!	!	!	!	!
*clefC4	*	*	*	*	*	*	*	*	*	*	*	*	*
=18	=18	=18	=18	=18	=18	=18	=18	=18	=18	=18	=18	=18	=18
*clefC4	*	*	*	*	*	*	*	*	*	*	*	*	*
*k[a-b-e-]	*	*	*	*	*	*	*	*	*	*	*	*	*
!LO:LB:g=original	!	!	!LO:LB:g=original	!	!LO:DY:b:Bi:t=pi	!	!	!	!	!	!	!	!
8r	4cc\	4ee-\	4c\	glo-	p	8r	.	4cc\	glo-	4ee-\	glo-	.	.
8F/L	.	.	.	.	.	8F/	glo-	.	.	.	.	.	.
8G/	4cc\	4ee-\	4c\	-ri-	.	8G/L	.	4cc\	-ri-	4ee-\	-ri-	.	.
8F/	.	.	.	.	.	8F/J	.	.	.	.	.	.	.
8G/	4cc\	4ee-\	4c\	-a	.	8G/	-ri-	4cc\	-a	4ee-\	-a	.	.
!LO:SIC:v:s=8An/J	!	!	!	!	!	!	!	!	!	!	!	!	!
8A-/J	.	.	.	.	.	8An/	-a	.	.	.	.	.	.
=19	=19	=19	=19	=19	=19	=19	=19	=19	=19	=19	=19	=19	=19
4B-\	4cc\	4ee-\	4c\	tu-	.	4B-\	tu-	4cc\	tu-	4ee-\	tu-	.	.
4BB-/	4b-\	2dd\	4B-\	-a	.	4B-\	-a	4b-\	-a	4dd\	-a	.	.
4r	4r	.	4r	.	.	4r	.	4r	.	4r	.	.	.
!LO:CL:ed	!	!	!	!	!	!	!	!	!	!	!	!	!
*clefF4	*	*	*	*	*	*	*	*	*	*	*	*	*
=20	=20	=20	=20	=20	=20	=20	=20	=20	=20	=20	=20	=20	=20
*clefF4	*	*	*	*	*	*	*	*	*	*	*	*	*
*k[a-e-b-]	*	*	*	*	*	*	*	*	*	*	*	*	*
8r	2dd\	2ff\	8r	.	.	4.d\	glo-	4.bn\	glo-	4.ff\	glo-	1.r	1.r
8G\L	.	.	8G\	glo-	.	.	.	.	.	.	.	.	.
8An\	.	.	8An\L	.	.	.	.	.	.	.	.	.	.
8G\	.	.	8A\J	.	.	8d\	-ri-	8b\	-ri-	8ff\	-ri-	.	.
8A\	4dd\	4ff\	8A\L	.	.	4d\	-a	4b\	-a	4ff\	-a	.	.
8Bn\J	.	.	8Bn\J	.	.	.	.	.	.	.	.	.	.
=21	=21	=21	=21	=21	=21	=21	=21	=21	=21	=21	=21	=21	=21
8c\L	4cc\	8ee-\L	8c\	.	.	8c\	glo-	8g\	glo-	8ee-\	glo-	.	.
8A-\J	.	8cc\J	16A-X\	-ri-	.	16c\	-ri-	16g\	-ri-	16cc\	-ri-	.	.
.	.	.	16A-\	-a	.	16c\	-a	16g\	-a	16cc\	-a	.	.
!	!	!	!	!	!	!	!	!	!	!LO:LB:g=original	!	!	!
4F\	4a-X/	4dd\	4F\	tu-	.	2d\	tu-	(4a-\	tu-	(4dd\	tu-	.	.
4G\	4g/	4bn\	4G\	.	.	.	.	4g\)	.	4bn\)	.	.	.
=22	=22	=22	=22	=22	=22	=22	=22	=22	=22	=22	=22	=22	=22
!LO:TX:t=P:problem=mixed beam	!LO:TX:t=P:problem=mixed beam	!LO:LB:g=original	!	!	!	!	!	!	!	!	!	!	!
8C|>/L	8c/L	8cc/L	4C/	-a	.	4c\	-a	4g\	-a	4cc\	-a	2.r	2.r
8c|\	8cc\	8cc/	.	.	.	.	.	.	.	.	.	.	.
8B-|\	8b-\	8b-X/	4r	.	.	4r	.	4r	.	4r	.	.	.
8A-|\	8a-\	8a-X/	.	.	.	.	.	.	.	.	.	.	.
8G|\	8g\	8g/	4r	.	.	4r	.	4r	.	4r	.	.	.
8F|\J	8f\J	8f/J	.	.	.	.	.	.	.	.	.	.	.
=23	=23	=23	=23||	=23||	=23||	=23||	=23||	=23||	=23||	=23||;	=23||	=23||	=23||
*	*	*	*	*	*	*k[a-b-e-]	*	*k[a-b-e-]	*	*	*	*M3/4	*M3/4
*	*	*	*	*	*	*M3/4	*	*M3/4	*	*	*	*	*
!LO:LB:g=original	!	!	!LO:TX:t=P:problem=wrong time signature (erased)	!	!	!LO:LB:g=original	!	!LO:LB:g=original	!	!	!	!LO:TX:t=osanna:b:rj	!LO:TX:t=Osanna:b:rj
4E-\	8e-/L	8e-/L	8r	.	.	8r	.	8r	.	2.ee-\	O-	8B-\L	8e-\L
.	8e-/	8g/	8E-\	O-	.	8G/	O-	8e-\	O-	.	.	8e-\	8g\
4r	8f/	8a-/	8F\	-san-	.	8A-/	-san-	8f\	-san-	.	.	8f\	8a-\
!	!LO:SIC:v:s=8e-/	!	!	!	!	!	!	!	!	!	!	!	!
.	8d/	8g/	8E-\	-na	.	8G/	-na	8e-\	-na	.	.	8e-\	8g\
!	!LO:SIC:v:s=8f/	!	!	!	!	!	!	!	!	!	!	!	!
4r	8e-/	8a-/	8F\	in	.	8A-/	in	8f\	in	.	.	8f\	8a-\
.	8g/J	8b-/J	8G\	ex-	.	8B-\	ex-	8g\	ex-	.	.	8g\J	8b-\J
=24	=24	=24	=24	=24	=24	=24	=24	=24	=24	=24	=24	=24	=24
4A-\	4a-/	4cc\	4A-\	-cel-	.	4c\	-cel-	4a-\	-cel-	4ee-\	-san-	4a-\	4cc\
4E-\	4g/	4b-\	4G\	-sis	.	4B-\	-sis	4g\	-sis	4ee-\	-na	4g\	4b-\
4r	4r	4r	4r	.	.	4r	.	4r	.	4r	.	4r	4r
=25	=25	=25	=25	=25	=25	=25	=25	=25	=25	=25	=25	=25	=25
8r	8r	2ff\	8r	.	.	2A-\	in	8r	.	2ff\	in	4f\	4a-\
8BB-/L	8d/L	.	8BB-/	O-	.	.	.	8d\	O-	.	.	.	.
8C/	8e-/	.	8C/	-san-	.	.	.	8e-\	-san-	.	.	4r	4r
8BB-/	8d/	.	8BB-/	-na	.	.	.	8d\	-na	.	.	.	.
8C/	8e-/	4a-/	8C/	in	.	4A-\	ex-	8e-\	in	4a-\	ex-	4r	4r
8D/J	8f/J	.	8D/	ex-	.	.	.	8f\	ex-	.	.	.	.
=26	=26	=26	=26	=26	=26	=26	=26	=26	=26	=26	=26	=26	=26
!	!LO:SIC:v:s=4f/:t=?	!	!	!	!	!	!	!	!	!	!	!	!
4E-\	4g/	4g/	4E-\	-cel-	.	4G\	-cel-	4g\	-cel-	4a-\	-cel-	4e-\	4g\
!	!LO:SIC:v:s=4e-/	!	!	!	!	!	!	!	!	!	!	!	!
4EE-/	4f/	4g/	4E-\	-sis	.	4B-\	-sis	4g\	-sis	4g\	-sis	4e-\	4g\
4r	4r	4r	4r	.	.	4r	.	4r	.	4r	.	4r	4r
!LO:CL:ed	!	!	!	!	!	!	!	!	!	!	!	!	!
*clefC4	*	*	*	*	*	*	*	*	*	*	*	*	*
=27	=27	=27	=27	=27	=27	=27	=27	=27	=27	=27	=27	=27	=27
*clefC4	*	*	*	*	*	*	*	*	*	*	*	*	*
*k[a-b-e-]	*	*	*	*	*	*	*	*	*	*	*	*	*
!	!	!	!	!	!	!LO:LB:g=original	!	!	!	!	!	!	!
8r	8r	2ff\	8r	.	.	8r	.	8r	.	2ff\	in	2.r	0.r
8B-\L	8d/L	.	8D\	O-	.	8B-\	O-	8d\	O-	.	.	.	.
8c\	8e-/	.	8E-\	-san-	.	8c\	-san-	8e-\	-sa-	.	.	.	.
!	!	!	!LO:LB:g=original	!	!	!	!	!	!	!	!	!	!
8B-\	8d/	.	8D\	-na	.	8B-\	-na	8d\	-na	.	.	.	.
8c\	8e-/	4a-/	8E-\L	in	.	8c\	in	8e-\	in	4a-\	ex-	.	.
8d\J	8f/J	.	8F\J	ex-	.	8d\	ex-	8f\	ex-	.	.	.	.
=28	=28	=28	=28	=28	=28	=28	=28	=28	=28	=28	=28	=28	=28
!	!LO:LB:g=original	!LO:LB:g=original	!	!	!	!	!	!	!	!	!	!	!
!	!LO:SIC:v:s=4f/	!	!	!	!	!	!	!	!	!	!	!	!
4e-\	4g/	4g/	4G\	-cel-	.	4e-\	-cel-	4g\	-cel-	4a-\	-cel-	4e-\	.
!	!LO:SIC:v:s=4e-/	!	!	!	!	!	!	!	!	!	!	!	!
4E-/	4f/	4g/	4G\	-sis	.	4E-/	-sis	4g\	-sis	4g\	-sis	4e-\	.
4r	4r	4r	4r	.	.	4r	.	4r	.	4r	.	4r	.
!LO:CL:ed	!	!	!	!	!	!	!	!	!	!	!	!	!
*clefF4	*	*	*	*	*	*	*	*	*	*	*	*	*
=29	=29	=29	=29	=29	=29	=29	=29	=29	=29	=29	=29	=29	=29
*clefF4	*	*	*	*	*	*	*	*	*	*	*	*	*
*k[a-e-b-]	*	*	*	*	*	*	*	*	*	*	*	*	*
!	!	!	!	!	!	!	!	!	!	!LO:LB:g=original	!	!LO:LB:g=original	!
8r	2d/	2a-/	8r	.	.	2F/	in	2d\	in	2a-\	in	1.r	.
8F\L	.	.	8F\	O-	.	.	.	.	.	.	.	.	.
8F\	.	.	8F\	-san-	.	.	.	.	.	.	.	.	.
8E-\	.	.	8E-\	-na	.	.	.	.	.	.	.	.	.
8D\	4d/	4a-/	8D\	in	.	4F/	ex-	4d\	ex-	4a-\	ex-	.	.
8C\J	.	.	8C/	ex-	.	.	.	.	.	.	.	.	.
=30	=30	=30	=30	=30	=30	=30	=30	=30	=30	=30	=30	=30	=30
!LO:LB:g=original	!	!	!	!	!	!	!	!	!	!	!	!	!
4BB-/	2d/	2a-/	4BB-/	-ce-	.	2F/	-cel-	2d\	-cel-	2a-\	-cel-	.	.
4D\	.	.	4D/	.	.	.	.	.	.	.	.	.	.
!	!LO:SIC:v:s=4e-/	!	!	!	!	!	!	!	!	!	!	!	!
4E-\	4d/	4a-/	4E-/	-lsis	.	4G/	-sis	4e-\	-sis	4g\	-sis	.	.
=31	=31	=31	=31	=31	=31	=31	=31	=31	=31	=31	=31	=31	=31
!LO:TX:t=1	!	!	!	!	!	!LO:TX:t=1	!	!	!	!	!	!	!
2.r	8r	8r	2.r	.	.	2.r	.	2.r	.	2.r	.	2.r	2.r
.	8e-/L	8g/L	.	.	.	.	.	.	.	.	.	.	.
.	8f/	8a-/	.	.	.	.	.	.	.	.	.	.	.
.	8g/	8b-/	.	.	.	.	.	.	.	.	.	.	.
.	8a-/	8cc/	.	.	.	.	.	.	.	.	.	.	.
.	8f/J	8dd/J	.	.	.	.	.	.	.	.	.	.	.
=32	=32	=32	=32	=32	=32	=32	=32	=32	=32	=32	=32	=32	=32
!	!	!LO:TX:t=P:problem=mixed beam	!	!	!	!	!	!	!	!	!	!	!LO:LB:g=original
8r	8g/L	8ee-\L	8r	.	.	8r	.	8r	.	8r	.	8r	8r
8A-\	8f/J	8g/J	16A-\	in	.	16c\	in	16f\	in	8a-\	o-	8f\	8a-\
.	.	.	16A-\	ex-	.	16c\	ex-	16f\	ex-	.	.	.	.
4B-\	4e-/	4g/	4B-\	-cel-	.	2B-\	-cel-	(4e-\	-cel-	4g\	-sann-	4e-\	4g\
4BB-/	4d/	4f/	4BB-/	.	.	.	.	4d\)	.	4f\	.	4B-/	4f\
=33	=33	=33	=33	=33	=33	=33	=33	=33	=33	=33	=33	=33	=33
!	!	!LO:LB:g=original	!	!	!	!LO:LB:g=original	!	!LO:LB:g=original	!	!	!	!	!
4E-\	8e-/L	8e-/L	2E-\	-sis	.	4B-\	-sis	4e-\	-sis	4g\	-a	4G/	4e-\
.	8e-/	8g/	.	.	.	.	.	.	.	.	.	.	.
4r	8f/	8a-/	.	.	.	4r	.	4r	.	4r	.	4r	4r
.	8g/	8b-/	.	.	.	.	.	.	.	.	.	.	.
4r	8a-/	8cc/	4r	.	.	4r	.	4r	.	4r	.	4r	4r
.	8f/J	8dd/J	.	.	.	.	.	.	.	.	.	.	.
=34	=34	=34	=34	=34	=34	=34	=34	=34	=34	=34	=34	=34	=34
!	!	!LO:TX:t=P:problem=mixed beam	!	!	!	!	!	!	!	!	!	!	!
8r	8g/L	8ee-\L	8r	.	.	8r	.	8r	.	8r	.	8r	8r
8A-\	8f/J	8g/J	16A-\	in	.	16c\	in	16f\	in	8a-\	o-	8f\	8a-\
.	.	.	16A-\	ex-	.	16c\	ex-	16f\	ex-	.	.	.	.
4B-\	4e-/	4g/	4B-\	-cel-	.	2B-\	-cel-	(4e-\	-cel-	4g\	-san-	4e-\	4g\
4BB-/	4d/	4f/	4BB-/	.	.	.	.	4d\)	.	4f\	.	4B-\	4f\
=35	=35	=35	=35	=35	=35	=35	=35	=35	=35	=35	=35	=35	=35
2E-\	2e-/	2e-/	2E-\	-sis	.	2B-\	-sis	2e-\	-sis	4g\	-na	2G/	2e-\
.	.	.	.	.	.	.	.	.	.	4r	.	.	.
4r	4r	4r	4r	.	.	4r	.	4r	.	4r	.	4r	4r
==	==	==	==	==	==	==	==	==	==	==	==	==	==
*-	*-	*-	*-	*-	*-	*-	*-	*-	*-	*-	*-	*-	*-
!!!system-decoration: [(s1,s2)][(s3,s4,s5,s6)][(s7,s8)][(s9)]
!!!RDF**kern: | = vertical stroke
!!!RDF**kern: > = above
!!!RDF**kern: < = below
!!!ENC: Andrzej Gręziak
!!!END: 2021-02-01
!!!ENC: Krzysztof Stępień
!!!END: 2022-01-17
